svgs/thin/grid-dividers.svg

<svg xmlns="http://www.w3.org/2000/svg" viewBox="0 0 512 512"><!--! Font Awesome Pro 6.4.2 by @fontawesome - https://fontawesome.com License - https://fontawesome.com/license (Commercial License) Copyright 2023 Fonticons, Inc. --><path d="M0 8C0 3.6 3.6 0 8 0H504c4.4 0 8 3.6 8 8s-3.6 8-8 8H8c-4.4 0-8-3.6-8-8zM64 112c-8.8 0-16 7.2-16 16v64c0 8.8 7.2 16 16 16h64c8.8 0 16-7.2 16-16V128c0-8.8-7.2-16-16-16H64zM32 128c0-17.7 14.3-32 32-32h64c17.7 0 32 14.3 32 32v64c0 17.7-14.3 32-32 32H64c-17.7 0-32-14.3-32-32V128zM64 400c-8.8 0-16 7.2-16 16v64c0 8.8 7.2 16 16 16h64c8.8 0 16-7.2 16-16V416c0-8.8-7.2-16-16-16H64zM32 416c0-17.7 14.3-32 32-32h64c17.7 0 32 14.3 32 32v64c0 17.7-14.3 32-32 32H64c-17.7 0-32-14.3-32-32V416zM288 112H224c-8.8 0-16 7.2-16 16v64c0 8.8 7.2 16 16 16h64c8.8 0 16-7.2 16-16V128c0-8.8-7.2-16-16-16zM224 96h64c17.7 0 32 14.3 32 32v64c0 17.7-14.3 32-32 32H224c-17.7 0-32-14.3-32-32V128c0-17.7 14.3-32 32-32zm0 304c-8.8 0-16 7.2-16 16v64c0 8.8 7.2 16 16 16h64c8.8 0 16-7.2 16-16V416c0-8.8-7.2-16-16-16H224zm-32 16c0-17.7 14.3-32 32-32h64c17.7 0 32 14.3 32 32v64c0 17.7-14.3 32-32 32H224c-17.7 0-32-14.3-32-32V416zM448 112H384c-8.8 0-16 7.2-16 16v64c0 8.8 7.2 16 16 16h64c8.8 0 16-7.2 16-16V128c0-8.8-7.2-16-16-16zM384 96h64c17.7 0 32 14.3 32 32v64c0 17.7-14.3 32-32 32H384c-17.7 0-32-14.3-32-32V128c0-17.7 14.3-32 32-32zm0 304c-8.8 0-16 7.2-16 16v64c0 8.8 7.2 16 16 16h64c8.8 0 16-7.2 16-16V416c0-8.8-7.2-16-16-16H384zm-32 16c0-17.7 14.3-32 32-32h64c17.7 0 32 14.3 32 32v64c0 17.7-14.3 32-32 32H384c-17.7 0-32-14.3-32-32V416zM8 288H504c4.4 0 8 3.6 8 8s-3.6 8-8 8H8c-4.4 0-8-3.6-8-8s3.6-8 8-8z"/></svg>

<svg xmlns="http://www.w3.org/2000/svg" viewBox="0 0 512 512"><!--! Font Awesome Pro 6.1.1 by @fontawesome - https://fontawesome.com License - https://fontawesome.com/license (Commercial License) Copyright 2022 Fonticons, Inc. --><path d="M0 8C0 3.582 3.582 0 8 0H504C508.4 0 512 3.582 512 8C512 12.42 508.4 16 504 16H8C3.582 16 0 12.42 0 8zM32 128C32 110.3 46.33 96 64 96H128C145.7 96 160 110.3 160 128V192C160 209.7 145.7 224 128 224H64C46.33 224 32 209.7 32 192V128zM48 128V192C48 200.8 55.16 208 64 208H128C136.8 208 144 200.8 144 192V128C144 119.2 136.8 112 128 112H64C55.16 112 48 119.2 48 128zM32 416C32 398.3 46.33 384 64 384H128C145.7 384 160 398.3 160 416V480C160 497.7 145.7 512 128 512H64C46.33 512 32 497.7 32 480V416zM48 416V480C48 488.8 55.16 496 64 496H128C136.8 496 144 488.8 144 480V416C144 407.2 136.8 400 128 400H64C55.16 400 48 407.2 48 416zM288 96C305.7 96 320 110.3 320 128V192C320 209.7 305.7 224 288 224H224C206.3 224 192 209.7 192 192V128C192 110.3 206.3 96 224 96H288zM288 112H224C215.2 112 208 119.2 208 128V192C208 200.8 215.2 208 224 208H288C296.8 208 304 200.8 304 192V128C304 119.2 296.8 112 288 112zM192 416C192 398.3 206.3 384 224 384H288C305.7 384 320 398.3 320 416V480C320 497.7 305.7 512 288 512H224C206.3 512 192 497.7 192 480V416zM208 416V480C208 488.8 215.2 496 224 496H288C296.8 496 304 488.8 304 480V416C304 407.2 296.8 400 288 400H224C215.2 400 208 407.2 208 416zM448 96C465.7 96 480 110.3 480 128V192C480 209.7 465.7 224 448 224H384C366.3 224 352 209.7 352 192V128C352 110.3 366.3 96 384 96H448zM448 112H384C375.2 112 368 119.2 368 128V192C368 200.8 375.2 208 384 208H448C456.8 208 464 200.8 464 192V128C464 119.2 456.8 112 448 112zM352 416C352 398.3 366.3 384 384 384H448C465.7 384 480 398.3 480 416V480C480 497.7 465.7 512 448 512H384C366.3 512 352 497.7 352 480V416zM368 416V480C368 488.8 375.2 496 384 496H448C456.8 496 464 488.8 464 480V416C464 407.2 456.8 400 448 400H384C375.2 400 368 407.2 368 416zM504 288C508.4 288 512 291.6 512 296C512 300.4 508.4 304 504 304H8C3.582 304 0 300.4 0 296C0 291.6 3.582 288 8 288H504z"/></svg>
